X: 8274
T: Corn Riggs
R: barndance
M: 4/4
K: Dmajor
|:(3DEF|G2 G>A (3BcB A>G|F>^EF>G A2 D2|G2 G>A B>cA>B|G2 d2 d2 (3DEF|
G>FG>A B2- B>G|F>EF>G A2 D2|E2- E>G A>GF>E|D2 G2 G2:|
|:D2|G2 d2 B2 d2|F>^EF>G A2 D2|G2 d2 B>cA>B|G2 d2 d2 D2|
G2 d2 e>dc>B|c>BA>G F>GA>D|E2 G2 A>GF>E|D2 G2 G2:|

